X: 124
T:Summertime
C:George Gershwin
M:C|
L:1/8
Q:1/2=72
K:AMin
% dorian/minor hexatonic
  e2  c2 |e8-          |ez  d>c d>e c2|A4   E4-|E2 z2
  e2  c2 |d d3-   d4   |z2  c>A c>A c2|B8-     |B4
  z e2  c|e e2 e- e4   |z2  d>c d>e c2|A4   E4-|E4
  z2  E2 |G2 EG   A2 c2|e d3    c4    |cA3- A4-|A8-  |A2 z2 z4|z4||
(3e2e2c2 |e2 e6        |z>e d>c d>e c2|A4   E4-|E3  z
  e2  c2 |d d2 d- d4   |z2  c>A c>A c2|B8-     |B4
  z e e c|e e3-   e4   |z2  d>c d>e c2|A4   E4-|E4
  z2  E2 |G2 EG   A2 c2|e d3    c4    |cA3- A4-|A8-  |A8-     |A8-|A6 z2|z8|z8|]

And here is a Chinese example:

